icons/1_Primary/viagogo.svg

<svg width="1024" height="1024" fill="none" xmlns="http://www.w3.org/2000/svg"><g clip-path="url(#a)"><path d="M512 1024c282.77 0 512-229.23 512-512S794.77 0 512 0 0 229.23 0 512s229.23 512 512 512Z" fill="#98DC9A"/><path d="M249.7 558.06h-28.77l-35.76-95.09 31.65-.03 20.01 61.18 19.51-61.21 29.54-.03-36.18 95.18Zm42.2-.03-.09-95.15 30.69-.03.09 95.14-30.69.03v.01Zm15.44-105.71c-9.01 0-16.31-7.28-16.31-16.29 0-9.02 7.27-16.12 16.29-16.13 9.02-.01 16.12 7.09 16.13 16.1 0 9-7.09 16.3-16.1 16.32m80.62 61.12c-7.29 0-20.72-.36-26.27 5.2-1.73 1.73-3.26 4.22-3.26 8.05 0 9.2 6.91 11.51 11.91 11.5 10.36 0 16.68-4.81 17.64-5.38l-.03-19.38.01.01Zm2.92 44.51v-8.06c-2.11 1.73-11.88 10.17-26.85 10.2-19.18 0-30.89-12.84-30.91-31.06-.03-35.1 42.36-35.14 52.34-35.14h2.11c0-3.08.18-6.14-2.31-8.63-1.54-1.53-4.61-3.06-11.32-3.06-13.43.01-25.31 5.97-26.46 6.55l-9.22-18.22c1.53-1.15 14.56-10.37 37.2-10.39 14.58 0 25.51 3.62 33 11.1 8.25 8.24 7.68 19.37 7.69 31.07l.05 55.63-25.32.02v-.01Zm189.27-98.19c-29.54.02-51.01 21.71-50.98 51.26.04 28.78 20 49.66 48.77 49.63 30.32-.03 51.59-21.53 51.55-52.03-.02-27.8-20.54-48.87-49.29-48.87h-.05m-20.29 50.08c-.01-15.92 7.46-25.52 19.17-25.53 12.27 0 19.77 10.35 19.78 26.08 0 15.92-6.69 25.51-18.59 25.52h-.02c-12.26 0-20.32-9.96-20.34-26.07Zm-83.48-49.98c-32.03.01-52.15 23.05-52.13 51.25.02 22.44 12.71 46.97 43.4 46.96 12.85-.01 19.37-5.58 20.52-6.35v7.3c.02 12.86-6.11 19.37-20.69 19.39-15.16 0-27.26-7.65-28.59-8.61l-12.08 19.01c2.11 1.9 16.9 14.17 44.33 14.15 21.1-.02 31.84-8.47 36.63-13.28 11.31-11.12 10.52-22.25 10.52-34.14l-.08-85c-2.88-1.52-20.29-10.68-41.73-10.68h-.1Zm-21.83 49.87c-.01-16.11 9.57-25.52 21.27-25.53 6.33 0 10.36 1.53 12.28 2.5l.04 42.58c-.38.19-5.56 4.43-14 4.43h-.01c-10.36 0-19.57-8.24-19.58-23.97m64.72 45.8-.08-85v-.59l-.53-.28c-6.16-3.26-22.62-10.82-42.29-10.8-15.36 0-28.61 5.16-38.34 14.9-9.54 9.55-14.79 22.81-14.78 37.34.02 23.88 13.76 47.97 44.38 47.95 8.09-.01 15.06-2.12 20.74-6.29.14-.1.26-.19.33-.24l-1.53-.82v7.3c.01 12.71-6.06 18.38-19.71 18.41-15.74 0-27.9-8.34-28.02-8.43l-.85-.6-.56.88-12.07 19.01-.45.7.62.56c1.64 1.48 16.86 14.43 44.98 14.4 15.59 0 28.5-4.7 37.34-13.56 10.91-10.73 10.86-21.4 10.81-32.69v-2.15h.01Zm-12.2 33.45c-8.45 8.48-20.88 12.97-35.94 12.98-27.4.03-42.08-12.47-43.67-13.89l.17 1.26 12.07-19.01-1.41.28c.12.09 12.81 8.8 29.16 8.79 14.81-.02 21.7-6.5 21.68-20.38v-9.16l-1.54 1.04c-.1.07-.23.16-.39.28-5.33 3.91-11.92 5.9-19.58 5.91-29.26.01-42.39-23.08-42.41-45.98-.01-14 5.03-26.77 14.2-35.95 9.35-9.36 22.13-14.31 36.95-14.31 19.22-.03 35.33 7.38 41.37 10.57l-.52-.87.07 85v2.16c.05 10.86.1 21.12-10.23 31.29M487.7 528.4c-.1.05-.19.12-.39.25-4.88 3.37-9.85 4.08-13.17 4.08-9.25 0-18.59-7.1-18.6-22.98 0-7.98 2.35-14.56 6.83-19.04 3.6-3.6 8.25-5.5 13.46-5.5 6.14 0 10.05 1.49 11.84 2.39l-.55-.88.03 42.58.55-.89v-.01Zm.84-42.57c-1.94-.97-6.17-2.6-12.72-2.6-5.66 0-10.94 2.16-14.86 6.09-4.85 4.85-7.41 11.92-7.4 20.43.01 17.15 10.67 24.96 20.57 24.95 3.6 0 8.99-.77 14.29-4.43.08-.05.16-.11.19-.13l.47-.29.03-.57-.03-42.58v-.61l-.55-.28.01.02Zm141.93 22.81c-.01-13.8-5.04-26.43-14.17-35.57-9.21-9.22-22.05-14.3-36.15-14.28-30.14.02-51.99 22-51.97 52.25.02 14.24 4.95 27.13 13.89 36.31 9.01 9.24 21.75 14.33 35.87 14.31 14.85-.01 28.24-5.25 37.73-14.75 9.57-9.59 14.83-23.18 14.81-38.27m-52.54 51.05c-28.1.03-47.75-19.98-47.79-48.65-.02-29.11 21.01-50.26 50-50.28 27.99-.02 48.33 20.11 48.36 47.88.02 14.57-5.04 27.66-14.24 36.88-9.11 9.12-22.01 14.15-36.33 14.17Zm19.88-49.29c.01 15.58-6.4 24.52-17.6 24.54-11.93 0-19.36-9.6-19.37-25.08-.01-15.12 6.95-24.53 18.18-24.54 11.58 0 18.78 9.61 18.79 25.09m-18.8-27.06c-12.44.02-20.16 10.18-20.14 26.52.01 16.45 8.4 27.07 21.34 27.06 12.27-.02 19.58-9.93 19.57-26.51-.01-16.45-8.17-27.07-20.77-27.06m121.62 3.19c-1.92-.96-5.96-2.49-12.28-2.48-11.7 0-21.28 9.41-21.27 25.53.02 15.73 9.23 23.97 19.59 23.96 8.44 0 13.62-4.22 14-4.42l-.04-42.59Zm19.66 102.98c-4.79 4.81-15.53 13.26-36.63 13.28-27.43.02-42.21-12.23-44.32-14.17l12.07-18.99c1.35.96 13.44 8.62 28.59 8.61 14.57-.02 20.71-6.54 20.69-19.4v-7.3c-1.15.79-7.67 6.35-20.53 6.36-30.69.03-43.37-24.51-43.39-46.96-.03-28.19 20.1-51.23 52.13-51.26 21.49-.01 38.94 9.18 41.83 10.7l.08 84.99c0 11.9.79 23.02-10.52 34.14Zm68.25-105.37c-11.69.02-19.17 9.61-19.16 25.53.02 16.11 8.09 26.08 20.36 26.07 11.9 0 18.59-9.6 18.58-25.53-.01-15.73-7.5-26.08-19.78-26.07Zm-1.08 76.34c-28.77.03-48.74-20.87-48.77-49.63-.03-29.54 21.44-51.24 50.98-51.26 28.78-.03 49.32 21.05 49.34 48.86.03 30.5-21.24 52.01-51.55 52.03Z" fill="#fff"/></g><defs><clipPath id="a"><path fill="#fff" d="M0 0h1024v1024H0z"/></clipPath></defs></svg>

<svg width="1024" height="1024" viewBox="0 0 1024 1024" fill="none" xmlns="http://www.w3.org/2000/svg">
<g clip-path="url(#clip0_2_3843)">
<path d="M512 1024C794.77 1024 1024 794.77 1024 512C1024 229.23 794.77 0 512 0C229.23 0 0 229.23 0 512C0 794.77 229.23 1024 512 1024Z" fill="#98DC9A"/>
<path d="M249.7 558.06H220.93L185.17 462.97L216.82 462.94L236.83 524.12L256.34 462.91L285.88 462.88L249.7 558.06ZM291.9 558.03L291.81 462.88L322.5 462.85L322.59 557.99L291.9 558.02V558.03ZM307.34 452.32C298.33 452.32 291.03 445.04 291.03 436.03C291.03 427.01 298.3 419.91 307.32 419.9C316.34 419.89 323.44 426.99 323.45 436C323.45 445 316.36 452.3 307.35 452.32M387.97 513.44C380.68 513.44 367.25 513.08 361.7 518.64C359.97 520.37 358.44 522.86 358.44 526.69C358.44 535.89 365.35 538.2 370.35 538.19C380.71 538.19 387.03 533.38 387.99 532.81L387.96 513.43L387.97 513.44ZM390.89 557.95V549.89C388.78 551.62 379.01 560.06 364.04 560.09C344.86 560.09 333.15 547.25 333.13 529.03C333.1 493.93 375.49 493.89 385.47 493.89H387.58C387.58 490.81 387.76 487.75 385.27 485.26C383.73 483.73 380.66 482.2 373.95 482.2C360.52 482.21 348.64 488.17 347.49 488.75L338.27 470.53C339.8 469.38 352.83 460.16 375.47 460.14C390.05 460.14 400.98 463.76 408.47 471.24C416.72 479.48 416.15 490.61 416.16 502.31L416.21 557.94L390.89 557.96V557.95ZM580.16 459.76C550.62 459.78 529.15 481.47 529.18 511.02C529.22 539.8 549.18 560.68 577.95 560.65C608.27 560.62 629.54 539.12 629.5 508.62C629.48 480.82 608.96 459.75 580.21 459.75H580.16M559.87 509.83C559.86 493.91 567.33 484.31 579.04 484.3C591.31 484.3 598.81 494.65 598.82 510.38C598.82 526.3 592.13 535.89 580.23 535.9H580.21C567.95 535.9 559.89 525.94 559.87 509.83ZM476.39 459.85C444.36 459.86 424.24 482.9 424.26 511.1C424.28 533.54 436.97 558.07 467.66 558.06C480.51 558.05 487.03 552.48 488.18 551.71V559.01C488.2 571.87 482.07 578.38 467.49 578.4C452.33 578.4 440.23 570.75 438.9 569.79L426.82 588.8C428.93 590.7 443.72 602.97 471.15 602.95C492.25 602.93 502.99 594.48 507.78 589.67C519.09 578.55 518.3 567.42 518.3 555.53L518.22 470.53C515.34 469.01 497.93 459.85 476.49 459.85H476.39ZM454.56 509.72C454.55 493.61 464.13 484.2 475.83 484.19C482.16 484.19 486.19 485.72 488.11 486.69L488.15 529.27C487.77 529.46 482.59 533.7 474.15 533.7H474.14C463.78 533.7 454.57 525.46 454.56 509.73M519.28 555.53L519.2 470.53V469.94L518.67 469.66C512.51 466.4 496.05 458.84 476.38 458.86C461.02 458.86 447.77 464.02 438.04 473.76C428.5 483.31 423.25 496.57 423.26 511.1C423.28 534.98 437.02 559.07 467.64 559.05C475.73 559.04 482.7 556.93 488.38 552.76C488.52 552.66 488.64 552.57 488.71 552.52L487.18 551.7V559C487.19 571.71 481.12 577.38 467.47 577.41C451.73 577.41 439.57 569.07 439.45 568.98L438.6 568.38L438.04 569.26L425.97 588.27L425.52 588.97L426.14 589.53C427.78 591.01 443 603.96 471.12 603.93C486.71 603.93 499.62 599.23 508.46 590.37C519.37 579.64 519.32 568.97 519.27 557.68V555.53H519.28ZM507.08 588.98C498.63 597.46 486.2 601.95 471.14 601.96C443.74 601.99 429.06 589.49 427.47 588.07L427.64 589.33L439.71 570.32L438.3 570.6C438.42 570.69 451.11 579.4 467.46 579.39C482.27 579.37 489.16 572.89 489.14 559.01V549.85L487.6 550.89C487.5 550.96 487.37 551.05 487.21 551.17C481.88 555.08 475.29 557.07 467.63 557.08C438.37 557.09 425.24 534 425.22 511.1C425.21 497.1 430.25 484.33 439.42 475.15C448.77 465.79 461.55 460.84 476.37 460.84C495.59 460.81 511.7 468.22 517.74 471.41L517.22 470.54L517.29 555.54V557.7C517.34 568.56 517.39 578.82 507.06 588.99M487.7 528.4C487.6 528.45 487.51 528.52 487.31 528.65C482.43 532.02 477.46 532.73 474.14 532.73C464.89 532.73 455.55 525.63 455.54 509.75C455.54 501.77 457.89 495.19 462.37 490.71C465.97 487.11 470.62 485.21 475.83 485.21C481.97 485.21 485.88 486.7 487.67 487.6L487.12 486.72L487.15 529.3L487.7 528.41V528.4ZM488.54 485.83C486.6 484.86 482.37 483.23 475.82 483.23C470.16 483.23 464.88 485.39 460.96 489.32C456.11 494.17 453.55 501.24 453.56 509.75C453.57 526.9 464.23 534.71 474.13 534.7C477.73 534.7 483.12 533.93 488.42 530.27C488.5 530.22 488.58 530.16 488.61 530.14L489.08 529.85L489.11 529.28L489.08 486.7V486.09L488.53 485.81L488.54 485.83ZM630.47 508.64C630.46 494.84 625.43 482.21 616.3 473.07C607.09 463.85 594.25 458.77 580.15 458.79C550.01 458.81 528.16 480.79 528.18 511.04C528.2 525.28 533.13 538.17 542.07 547.35C551.08 556.59 563.82 561.68 577.94 561.66C592.79 561.65 606.18 556.41 615.67 546.91C625.24 537.32 630.5 523.73 630.48 508.64M577.94 559.69C549.84 559.72 530.19 539.71 530.15 511.04C530.13 481.93 551.16 460.78 580.15 460.76C608.14 460.74 628.48 480.87 628.51 508.64C628.53 523.21 623.47 536.3 614.27 545.52C605.16 554.64 592.26 559.67 577.94 559.69ZM597.82 510.4C597.83 525.98 591.42 534.92 580.22 534.94C568.29 534.94 560.86 525.34 560.85 509.86C560.84 494.74 567.8 485.33 579.03 485.32C590.61 485.32 597.81 494.93 597.82 510.41M579.02 483.35C566.58 483.37 558.86 493.53 558.88 509.87C558.89 526.32 567.28 536.94 580.22 536.93C592.49 536.91 599.8 527 599.79 510.42C599.78 493.97 591.62 483.35 579.02 483.36M700.64 486.55C698.72 485.59 694.68 484.06 688.36 484.07C676.66 484.07 667.08 493.48 667.09 509.6C667.11 525.33 676.32 533.57 686.68 533.56C695.12 533.56 700.3 529.34 700.68 529.14L700.64 486.55ZM720.3 589.53C715.51 594.34 704.77 602.79 683.67 602.81C656.24 602.83 641.46 590.58 639.35 588.64L651.42 569.65C652.77 570.61 664.86 578.27 680.01 578.26C694.58 578.24 700.72 571.72 700.7 558.86V551.56C699.55 552.35 693.03 557.91 680.17 557.92C649.48 557.95 636.8 533.41 636.78 510.96C636.75 482.77 656.88 459.73 688.91 459.7C710.4 459.69 727.85 468.88 730.74 470.4L730.82 555.39C730.82 567.29 731.61 578.41 720.3 589.53ZM788.55 484.16C776.86 484.18 769.38 493.77 769.39 509.69C769.41 525.8 777.48 535.77 789.75 535.76C801.65 535.76 808.34 526.16 808.33 510.23C808.32 494.5 800.83 484.15 788.55 484.16ZM787.47 560.5C758.7 560.53 738.73 539.63 738.7 510.87C738.67 481.33 760.14 459.63 789.68 459.61C818.46 459.58 839 480.66 839.02 508.47C839.05 538.97 817.78 560.48 787.47 560.5Z" fill="white"/>
</g>
<defs>
<clipPath id="clip0_2_3843">
<rect width="1024" height="1024" fill="white"/>
</clipPath>
</defs>
</svg>
